static/img/in-field/nav-state-focus-dark.svg

<svg width="278" height="65" viewBox="0 0 278 65" fill="none" xmlns="http://www.w3.org/2000/svg">
<rect width="278" height="64" transform="translate(0 0.625)" fill="#171C1E"/>
<path fill-rule="evenodd" clip-rule="evenodd" d="M131 27.2917V24.625H155V27.2917H131ZM131 33.9583H155V31.2917H131V33.9583ZM131 40.625H155V37.9583H131V40.625Z" fill="white"/>
<rect x="115" y="4.625" width="56" height="56" rx="2" stroke="#019AEB" stroke-width="8" mask="url(#path-1-inside-1_7360_87699)"/>
</svg>

<svg width="278" height="65" fill="none" xmlns="http://www.w3.org/2000/svg"><path fill="#171C1E" d="M0 .625h278v64H0z"/><path fill-rule="evenodd" clip-rule="evenodd" d="M131 27.292v-2.667h24v2.667h-24zm0 6.666h24v-2.666h-24v2.666zm0 6.667h24v-2.667h-24v2.667z" fill="#fff"/><rect x="115" y="4.625" width="56" height="56" rx="2" stroke="#019AEB" stroke-width="8" mask="url(#prefix__path-1-inside-1_7360_87699)"/></svg>
